!!!OTL: Camptown Races
!!!COM: Foster, Stephen
!!!ODT: 
!!!YOR: The Folksong Fake Book
!!!YOY: 2000
!!!AST: Folk song
!!!YEC: Brian Luke, 2001
**kern	**harm
*k[f#c#]	*k[f#c#]
*M2/4	*M2/4
*D:	*D:
*>A	*>A
=1	=1
8a	I
8a	.
8f#	.
8a	.
=2	=2
8b	.
8a	.
4f#	.
=3	=3
8f#	V7
4.e	.
=4	=4
8f#	.
4.e	.
*>A'	*>A'
=5	=5
8a	I
8a	.
8f#	.
8a	.
=6	=6
8b	.
8a	.
4f#	.
=7	=7
4e	V7
8f#	.
8e	.
=8	=8
2d	I;
*>B	*>B
=9	=9
8.d	I
16d	.
8f#	.
8a	.
=10	=10
2dd	.
=11	=11
8.b	IV
16b	.
8dd	.
8b	.
=12	=12
4.a	I
*>A''	*>A''
8a	.
=13	=13
8a	I
8a	.
16f#	.
16f#	.
16a	.
16a	.
=14	=14
8b	.
8a	.
4f#	.
=15	=15
8e	V7
16f#	.
16g	.
16f#	.
8e	.
16e	.
=16	=16
4.d	I;
*-	*-
